X:25
T:Carpathian Tune
S:String Beings 11/98
N:From a hand-scribbles MS ...
M:2/4
L:1/16
K:Gm
"Gm"GA Bc d2d2 | "(A7)"^c2c2 "(D7)"d4| "Gm"BAG2 A2B2 | "D"A8 |
 "Gm"GABc d2d2 | "(A7)"^c2c2 "(D7)"d4 | "Gm"BAG2 A2B2 | "Gm"G8 :|
|: "Cm"(3cdcG2 (3cdcG2 | "Gm"(3BcBG2 (3BcBG2 | "Cm"(3cdcG2 c3d | "D7"BcAB "Gm"G4|
"Cm"(3cdcG2 (3cdcG2 | "Gm"(3BcBG2 B2c2 | "D7"d6 de | d2c2 B2A2 :|
